X: 1
T: Polska efter Snickar-Erik   [Dm]
C:
R: polska
S: Fiddle Hell Online 2021-5-25 Natalie Haas Swedish polska workshop
Z: 2021 John Chambers <jc:trillian.mit.edu>
M: 9/8
L: 1/8
K: Dm
% - - - - - - - - - -
V: 1
"^A"|:\
"A"z2(vg f)zud vezu^c | vdzue ve(ugf) ve(ufg) | azf de2 ^c2d | (efe) (d^c2) A3 |
"A"z2vg ufzd ez^c | dze e(gf) e(fg) | azf de2 ^c2d |1 "Dm"vd3 ud6 :|2 d3 d3-d2(vG |
"^B"|:\
"Dm"F)zuG vEzuF vDzuF | "G"vAz(uc d)vcu=B vAzuG | "Dm"vFzuG vEzuF vDzuF | "G"vGzu=B "A"AF2 "Dm"Dz(uG |
"Dm"F)z(vG E)zuF vDzF | "G"Az(uc d)c=B AzG | "Dm"FzG EzF DzF |1 "G"(vG=B2) "A"uA3- A2G :|2 "G"(G=B2) "A"A6 |]
% - - - - - - - - - -
% - - - - - - - - - -
P: Second voice - use same slurs!
V: 2
"^A"|:\
z2e dz=B ^czA | =Bz^c ded cde | fzd =B^c2 A2B | ^cdc =BA2 E3 |
z2e dz=B ^czA | =Bz^c ded cde | fzd =B^c2 A2G |1 F3 F6 :|2 F3 F3- F2E |
"^B"|:\
DzE ^CzA, DzE | FzA =BAG FzE | DzE ^CzA, DzD | EzG FD2 A,zE |
DzE ^CzA, DzE | FzA =BAG FzE | DzE ^CzA, DzD |1 ED2 ^C3- C2E :|2 ED2 ^C6 |]
